Dominus_Dark_Funeral/scalable/apps/jokosher.svg

<?xml version="1.0" encoding="UTF-8" standalone="no"?><svg xmlns:dc="http://purl.org/dc/elements/1.1/" xmlns:cc="http://creativecommons.org/ns#" xmlns:rdf="http://www.w3.org/1999/02/22-rdf-syntax-ns#" xmlns="http://www.w3.org/2000/svg" xmlns:xlink="http://www.w3.org/1999/xlink" width="48" height="48" viewBox="0 0 12.7 12.7"><metadata><rdf:RDF><cc:Work><dc:format>image/svg+xml</dc:format><dc:type rdf:resource="http://purl.org/dc/dcmitype/StillImage"/><dc:title/></cc:Work></rdf:RDF></metadata><defs><linearGradient id="e"><stop offset="0" stop-color="#f95"/><stop offset="1" stop-color="#fca"/></linearGradient><linearGradient id="d"><stop offset="0"/><stop offset="1" stop-opacity=".09"/></linearGradient><linearGradient id="c"><stop offset="0"/><stop offset="1" stop-opacity=".02"/></linearGradient><linearGradient id="a"><stop offset="0" stop-color="#fff"/><stop offset="1" stop-color="#1a1a1a"/></linearGradient><linearGradient id="b"><stop offset="0" stop-color="#917c6f"/><stop offset="1" stop-color="#f4e3d7"/></linearGradient><linearGradient xlink:href="#d" id="g" gradientUnits="userSpaceOnUse" x1="5.07" y1="6.31" x2="13.17" y2="10.46"/><linearGradient xlink:href="#e" id="f" x1=".23" y1="2.99" x2="11.69" y2="6.35" gradientUnits="userSpaceOnUse"/></defs><path d="M6.35.1C4.81.1 3.57.38 2.66.96A3.67 3.67 0 0 0 1 4.22c0 1.91 1.54 4.47 2.01 5.2.54.85 1.13 1.61 1.65 2.16.68.7 1.21 1.03 1.69 1.03s1.01-.33 1.69-1.03a15.2 15.2 0 0 0 1.65-2.15c.47-.74 2-3.3 2-5.21 0-1.42-.57-2.54-1.65-3.25A6.75 6.75 0 0 0 6.35.1z" fill="url(#f)"/><path d="M6.82.1a6.75 6.75 0 0 0-.1 0L5.38 7.63 8.57.36a6.75 6.75 0 0 0-.41-.11 6.75 6.75 0 0 0-.67-.11 6.75 6.75 0 0 0-.67-.05zM5.37 7.63l6.07-1.9c.15-.52.25-1.04.25-1.52 0-.1-.02-.19-.03-.28l-6.29 3.7zm0 0l4.32 1.8v-.01c.1-.16.34-.65.52-.96l-4.84-.83zm0 0l1.58 4.77c.06-.03.1-.02.17-.05.23-.15.5-.39.77-.65a1244.73 1244.73 0 0 1-2.52-4.07zm0 0l-1.36 3.08c.22.28.44.64.65.86l.71-3.94zm0 0l-2.85.88.32.6 2.53-1.48zM3.1.74c-.15.07-.3.13-.44.22a3.67 3.67 0 0 0-.3.22 3.67 3.67 0 0 0-.27.24 3.67 3.67 0 0 0-.25.27 3.67 3.67 0 0 0-.09.12 1342.89 1342.89 0 0 1 3.61 5.81L3.1.73zm-1.78 5.2c.12.35.26.7.4 1.05l3.58.62-3.98-1.68z" fill="#ff7f2a"/><path d="M8.86 10.52c.28-.37.56-.67.83-1.09.23-.37.73-1.2 1.18-2.17.22-.48.42-1 .57-1.52.03-.1.02-.18.05-.27L8.66 2.64l-.38 1.08-.24 3.58-1.62.78z" opacity=".5" fill="url(#g)"/><path font-size="25.19" font-weight="700" d="M7.4 2.89l1.26-.25v3.93c0 .5-.16.88-.5 1.13-.32.25-.82.38-1.49.38h-.25v-.8h.2c.26 0 .45-.05.59-.18a.7.7 0 0 0 .2-.53V2.89" style="line-height:125%;text-align:start" font-family="Bitstream Vera Sans" fill="#fff"/><path d="M6.35.1C4.81.1 3.57.38 2.66.96A3.67 3.67 0 0 0 1 4.22c0 1.91 1.54 4.47 2.01 5.2.54.85 1.13 1.61 1.65 2.16.68.7 1.21 1.03 1.69 1.03s1.01-.33 1.69-1.03a15.2 15.2 0 0 0 1.65-2.15c.47-.74 2-3.3 2-5.21 0-1.42-.57-2.54-1.65-3.25A6.75 6.75 0 0 0 6.35.1zm0 .03C6.91.15 7.44.2 7.9.31a5.82 5.82 0 0 1 1.6.66 3.65 3.65 0 0 1 1.24 1.36c.14.27.25.57.32.88a4.61 4.61 0 0 1-.14 2.53c-.15.52-.36 1.04-.58 1.52-.44.97-.95 1.8-1.18 2.17a15.2 15.2 0 0 1-1.65 2.15 4.9 4.9 0 0 1-.92.78.96.96 0 0 1-.24.1.96.96 0 0 1-.24-.1 4.76 4.76 0 0 1-.92-.78 14.41 14.41 0 0 1-1.65-2.15 19.2 19.2 0 0 1-1.18-2.17c-.22-.48-.43-1-.58-1.52a4.6 4.6 0 0 1-.14-2.52 3.73 3.73 0 0 1 .84-1.64 3.65 3.65 0 0 1 1.45-1A6.83 6.83 0 0 1 6.35.13z" opacity=".2"/></svg>

<?xml version="1.0" encoding="UTF-8" standalone="no"?>
<svg
   xmlns:dc="http://purl.org/dc/elements/1.1/"
   xmlns:cc="http://creativecommons.org/ns#"
   xmlns:rdf="http://www.w3.org/1999/02/22-rdf-syntax-ns#"
   xmlns:svg="http://www.w3.org/2000/svg"
   xmlns="http://www.w3.org/2000/svg"
   xmlns:xlink="http://www.w3.org/1999/xlink"
   xmlns:sodipodi="http://sodipodi.sourceforge.net/DTD/sodipodi-0.dtd"
   xmlns:inkscape="http://www.inkscape.org/namespaces/inkscape"
   width="48"
   height="48"
   viewBox="0 0 12.7 12.7"
   version="1.1"
   id="svg43"
   sodipodi:docname="jokosher.svg"
   inkscape:version="0.92.4 (5da689c313, 2019-01-14)">
  <sodipodi:namedview
     pagecolor="#ffffff"
     bordercolor="#666666"
     borderopacity="1"
     objecttolerance="10"
     gridtolerance="10"
     guidetolerance="10"
     inkscape:pageopacity="0"
     inkscape:pageshadow="2"
     inkscape:window-width="1112"
     inkscape:window-height="480"
     id="namedview45"
     showgrid="false"
     inkscape:zoom="4.9166667"
     inkscape:cx="2.1355932"
     inkscape:cy="24"
     inkscape:window-x="0"
     inkscape:window-y="25"
     inkscape:window-maximized="0"
     inkscape:current-layer="svg43" />
  <metadata
     id="metadata2">
    <rdf:RDF>
      <cc:Work>
        <dc:format>image/svg+xml</dc:format>
        <dc:type
           rdf:resource="http://purl.org/dc/dcmitype/StillImage" />
        <dc:title></dc:title>
      </cc:Work>
    </rdf:RDF>
  </metadata>
  <defs
     id="defs31">
    <linearGradient
       id="e">
      <stop
         offset="0"
         stop-color="#f95"
         id="stop4" />
      <stop
         offset="1"
         stop-color="#fca"
         id="stop6" />
    </linearGradient>
    <linearGradient
       id="d">
      <stop
         offset="0"
         id="stop9" />
      <stop
         offset="1"
         stop-opacity=".09"
         id="stop11" />
    </linearGradient>
    <linearGradient
       id="c">
      <stop
         offset="0"
         id="stop14" />
      <stop
         offset="1"
         stop-opacity=".02"
         id="stop16" />
    </linearGradient>
    <linearGradient
       id="a">
      <stop
         offset="0"
         stop-color="#fff"
         id="stop19" />
      <stop
         offset="1"
         stop-color="#1a1a1a"
         id="stop21" />
    </linearGradient>
    <linearGradient
       id="b">
      <stop
         offset="0"
         stop-color="#917c6f"
         id="stop24" />
      <stop
         offset="1"
         stop-color="#f4e3d7"
         id="stop26" />
    </linearGradient>
    <linearGradient
       xlink:href="#d"
       id="g"
       gradientUnits="userSpaceOnUse"
       x1="5.07"
       y1="6.31"
       x2="13.17"
       y2="10.46" />
    <linearGradient
       xlink:href="#e"
       id="f"
       x1=".23"
       y1="2.99"
       x2="11.69"
       y2="6.35"
       gradientUnits="userSpaceOnUse" />
  </defs>
  <path
     d="M 6.35,0.1 C 4.81,0.1 3.57,0.38 2.66,0.96 A 3.67,3.67 0 0 0 1,4.22 c 0,1.91 1.54,4.47 2.01,5.2 0.54,0.85 1.13,1.61 1.65,2.16 0.68,0.7 1.21,1.03 1.69,1.03 0.48,0 1.01,-0.33 1.69,-1.03 A 15.2,15.2 0 0 0 9.69,9.43 c 0.47,-0.74 2,-3.3 2,-5.21 0,-1.42 -0.57,-2.54 -1.65,-3.25 A 6.75,6.75 0 0 0 6.35,0.1 Z"
     id="path33"
     style="fill:url(#f)"
     inkscape:connector-curvature="0" />
  <path
     d="m 6.82,0.1 a 6.75,6.75 0 0 0 -0.1,0 L 5.38,7.63 8.57,0.36 A 6.75,6.75 0 0 0 8.16,0.25 6.75,6.75 0 0 0 7.49,0.14 6.75,6.75 0 0 0 6.82,0.09 Z m -1.45,7.53 6.07,-1.9 c 0.15,-0.52 0.25,-1.04 0.25,-1.52 0,-0.1 -0.02,-0.19 -0.03,-0.28 z m 0,0 4.32,1.8 V 9.42 c 0.1,-0.16 0.34,-0.65 0.52,-0.96 z m 0,0 1.58,4.77 C 7.01,12.37 7.05,12.38 7.12,12.35 7.35,12.2 7.62,11.96 7.89,11.7 A 1244.73,1244.73 0 0 1 5.37,7.63 Z m 0,0 -1.36,3.08 c 0.22,0.28 0.44,0.64 0.65,0.86 z m 0,0 -2.85,0.88 0.32,0.6 z M 3.1,0.74 C 2.95,0.81 2.8,0.87 2.66,0.96 A 3.67,3.67 0 0 0 2.36,1.18 3.67,3.67 0 0 0 2.09,1.42 3.67,3.67 0 0 0 1.84,1.69 3.67,3.67 0 0 0 1.75,1.81 1342.89,1342.89 0 0 1 5.36,7.62 L 3.1,0.73 Z m -1.78,5.2 c 0.12,0.35 0.26,0.7 0.4,1.05 L 5.3,7.61 1.32,5.93 Z"
     id="path35"
     inkscape:connector-curvature="0"
     style="fill:#ff7f2a" />
  <path
     d="m 8.86,10.52 c 0.28,-0.37 0.56,-0.67 0.83,-1.09 0.23,-0.37 0.73,-1.2 1.18,-2.17 0.22,-0.48 0.42,-1 0.57,-1.52 0.03,-0.1 0.02,-0.18 0.05,-0.27 L 8.66,2.64 8.28,3.72 8.04,7.3 6.42,8.08 Z"
     id="path37"
     style="opacity:0.5;fill:url(#g)"
     inkscape:connector-curvature="0" />
  <path
     font-size="25.19"
     font-weight="700"
     d="M 7.4,2.89 8.66,2.64 V 6.57 C 8.66,7.07 8.5,7.45 8.16,7.7 7.84,7.95 7.34,8.08 6.67,8.08 H 6.42 v -0.8 h 0.2 C 6.88,7.28 7.07,7.23 7.21,7.1 A 0.7,0.7 0 0 0 7.41,6.57 V 2.89"
     style="font-weight:700;font-size:25.19000053px;line-height:125%;font-family:'Bitstream Vera Sans';text-align:start;fill:#ffffff"
     id="path39"
     inkscape:connector-curvature="0" />
  <path
     d="M 6.35,0.1 C 4.81,0.1 3.57,0.38 2.66,0.96 A 3.67,3.67 0 0 0 1,4.22 c 0,1.91 1.54,4.47 2.01,5.2 0.54,0.85 1.13,1.61 1.65,2.16 0.68,0.7 1.21,1.03 1.69,1.03 0.48,0 1.01,-0.33 1.69,-1.03 A 15.2,15.2 0 0 0 9.69,9.43 c 0.47,-0.74 2,-3.3 2,-5.21 0,-1.42 -0.57,-2.54 -1.65,-3.25 A 6.75,6.75 0 0 0 6.35,0.1 Z m 0,0.03 C 6.91,0.15 7.44,0.2 7.9,0.31 a 5.82,5.82 0 0 1 1.6,0.66 3.65,3.65 0 0 1 1.24,1.36 c 0.14,0.27 0.25,0.57 0.32,0.88 A 4.61,4.61 0 0 1 10.92,5.74 C 10.77,6.26 10.56,6.78 10.34,7.26 9.9,8.23 9.39,9.06 9.16,9.43 A 15.2,15.2 0 0 1 7.51,11.58 4.9,4.9 0 0 1 6.59,12.36 0.96,0.96 0 0 1 6.35,12.46 0.96,0.96 0 0 1 6.11,12.36 4.76,4.76 0 0 1 5.19,11.58 14.41,14.41 0 0 1 3.54,9.43 19.2,19.2 0 0 1 2.36,7.26 C 2.14,6.78 1.93,6.26 1.78,5.74 A 4.6,4.6 0 0 1 1.64,3.22 3.73,3.73 0 0 1 2.48,1.58 3.65,3.65 0 0 1 3.93,0.58 6.83,6.83 0 0 1 6.35,0.13 Z"
     id="path41"
     inkscape:connector-curvature="0"
     style="opacity:0.2" />
</svg>
